X: 22
T: Tu er hu te jiaxiang
L: 1/8
M: 4/4
K: Ab
e2e fA2A3/ F/ [I:setbarnb 1]| 
E> A F E2<e2c | 
e2e Be2f a | 
e> f e FA4 | 
E2E FA2A A | 
F A c c B ce2 | 
A2B c A B/ c/ A F | 
E E/ F/ E CE4 |]

@@@ Tune index: 8690
